X: 22851
T: Lark In The Morning, The
R: jig
M: 6/8
K: Dmajor
|:d|AFA AF/G/A|BGB B/c/dB|AFA A2 d|fed BdB|
AFA A^GA|BGB B^AB|def afe|fdB B2:|
|:A|def a^ga|baf afe|dd/e/f afe|fdB B2 A|
def a2 a|baf a2 f|gbg f/g/af|1 edB B2:|2 edB B^AB||
|:dd/e/f f^ef|f^ef fef|dd/e/f f^ef|edB B2 A|
def f2 f|f^ef f2 d|gbg faf|1 edB B2 A:|2 edB B3||
|:Add fdd|edd fdB|Add fdd|edB B2 d|
Add f2 d|edd dd/e/f|g2 g fa/g/f|1 edB B2 F:|2 edB B2||

